X:138
T:Guns of the Magnificent Seven
Z: id:dc-reel-127
M:4/4
L:1/8
K:A Dorian
EAAG ABcA|EAFA GEDG|EAAG ABcd|egdB cAA2:|!
ABcd eAAf|gedc BGGB|ABcd eaaf|gedB cAA2:|!
M:3/4 egdB A2| M:4/4 egdB GABd|eBdB Aaaf|gedB cAA2:|!

